X:1
T:The Risen Lord Today Is King
T:The Risen Lord Today Is King
T:Lewis Henry Redner
T:J. C. Middleton, before 1917
T:Public Domain Courtesy of the Cyber Hymnal™
T:Public Domain Courtesy of the Cyber Hymnal™
C:Lewis Henry Redner
Z:Public Domain
Z:Courtesy of the Cyber Hymnal™
%%score ( 1 2 ) 3
L:1/8
Q:1/4=87
M:6/8
K:C
V:1 treble 
V:2 treble 
V:3 bass 
V:1
 [EG] | [EG]2 [EG] ([EG][^D^F])[EG] | ([FA][EG])[^D^F] [EG]2 [EG] | [Ec]2 [Gc] ([Fd][Ec])[Gd] | %4
w: 1.~The|ris- en Lord * to-|day * is king, O|haste ye forth * to|
w: 2.~At|ear- ly morn * a-|round * His tomb A|won- drous light * was|
w: 3.~The|joy- ous news * of|Eas- * ter spread— Tell|far and wide * the|
w: 4.~Bring|flash- ing jew- * els|to * a- dorn His|crown of roy- * al|
w: 5.~Hearts|washed in blood * make|jew- * els rare And|glow with light * un-|
w: 6.~On|Thy dear cross * we|lay * them down, And|there re- joic- * ing|
 [Ge]3 [Ac]2 [FA] | [EG]2 [EG] ([EG][^D^F])[EG] | ([FA][EG])[^D^F] [EG]2 [Ge] | %7
w: meet Him, Ex-|ult- ing songs * of|tri- * umph sing, And|
w: beam- ing, And|from its depths * a|sweet * per- fume, Like|
w: sto- ry That|Je- sus lives, * who|once * was dead, And|
w: glo- ry! Let|dia- monds gleam * where|cru- * el thorn Once|
w: dy- ing: Each|lov- ing act, * each|fer- * vent prayer A|
w: leave them; O|King of Love, * in|mer- * cy own And|
 [Gd]2 [DGB] (dc)[CA] | [B,G]3 [B,G]3 | [EG]2 [EG] [EG]2 [EG] | ([EG][Ge])[Ec] [EG]2 [EG] | %11
w: so with glad * hearts|greet Him.|Al- le- lu- ia!|Al- * le- lu- ia!|
w: frag- rant spic- * es,|stream- ing!|Al- le- lu- ia!|Al- * le- lu- ia!|
w: reigns the King * of|glo- ry!|Al- le- lu- ia!|Al- * le- lu- ia!|
w: pressed His tem- * ples|go- ry!|Al- le- lu- ia!|Al- * le- lu- ia!|
w: ra- diant gem * sup-|ply- ing!|Al- le- lu- ia!|Al- * le- lu- ia!|
w: gra- cious- ly * re-|ceive them!|Al- le- lu- ia!|Al- * le- lu- ia!|
 [CFA]2 [CFA] ([DB][CA])[DFB] | [Ec]3- [Ec]2 [_EG] | [_EG]2 [EG] [EG]2 [Ec] | %14
w: ~ ~ ~ * ~|~ * Forth|from the grave in|
w: ~ ~ ~ * ~|~ * While|an- gels stood be-|
w: ~ ~ ~ * ~|~ * His|hand a jew- eled|
w: ~ ~ ~ * ~|~ * Your|cost- liest off- erings|
w: ~ ~ ~ * ~|~ * More|pre- cious to the|
w: ~ ~ ~ * ~|~ * Wear|them for ev- er|
 [G_e]2 [Fd] [_Ec]2 [EG] | [F_A]2 [FA] ([Ac][G_B])[FA] | [_EG]2 [F_A] [EG]2 [EG] | %17
w: ma- jes- ty He|comes to set * His|peo- ple free! Strew|
w: side the door Which|He had o- * pened|ev- er- more, And|
w: scep- ter bears— His|head a crown * im-|mor- tal wears— And,|
w: to Him pay Who|rose tri- umph- * ant|Eas- ter Day: Join|
w: ris- en Christ Than|em- er- ald * or|am- e- thyst! And|
w: on Thy breast, Thou|in- ter- ced- * ing,|Great High Priest; And|
 [_EG]2 [EG] [EG]2 [Ec] | [G_e]2 [Fd] !fermata![_Ec]2 [Ec] | [_Ec]2 [Ec] (_ed)[Ec] | [Gd]2 G G3 || %21
w: fra- grant blos- soms|in His way, And|crown Him king * on|Eas- ter Day!|
w: said to His dis-|ci- ples dear, “The|Lord is ris- * en—He|is not here!”|
w: writ in gems up-|on His breast, Are|names of those * He|loves the best!|
w: pre- cious pearl with|rar- est gem And|form with love * His|di- a- dem!|
w: these, on Eas- ter|Day we bring As|grate- ful off- * erings|to our king.|
w: when Thou com- est,|Lord, a- gain, Count|us a- mong * Thy|jew- els then!|
"^Refrain" [EG]2 [EG] ([EG][Ge])[Ec] | [FA]2 [FA] (Af)[Fd] | [DB]2 [DB] ([DB][CA])[DFB] | %24
w: |||
w: |||
w: Al- le- lu- * ia!|Al- le- lu- * ia!|Al- le- lu- * ia!|
w: |||
w: |||
w: |||
 [Ec]2 [Fd] [Ge]3 | [EG]2 [EG] [EG]2 [EG] | [FA]2 [FA] [FA]2 [FA] | [DFB]2 [DFB] ([DFB][CA])[DFB] | %28
w: ||||
w: ||||
w: Praise the Lord!|Al- le- lu- ia!|Al- le- lu- ia!|Al- le- lu- * ia!|
w: ||||
w: ||||
w: ||||
 [Ec]2 [Ec] [Ec]3 |] %29
w: |
w: |
w: Praise the Lord!|
w: |
w: |
w: |
V:2
 x | x6 | x6 | x6 | x6 | x6 | x6 | x3 ^F2 x | x6 | x6 | x6 | x6 | x6 | x6 | x6 | x6 | x6 | x6 | %18
 x6 | x3 _E2 x | x2 G G3 || x6 | x3 F2 x | x6 | x6 | x6 | x6 | x6 | x6 |] %29
V:3
 C, | C,2 C, C,2 C, | C,2 C, C,2 C, | C,2 E, G,2 G, | C,3 F,2 F, | C,2 C, C,2 C, | C,2 C, C,2 C, | %7
 B,,2 G,, D,2 D, | G,,3 G,,3 | C,2 C, C,2 C, | C,2 C, C,2 C, | F,2 F, G,3 | C,3- C,2 C, | %13
 C,2 C, C,2 C, | [C,C]2 [C,G,] C,2 C, | F,2 F, F,2 F, | C,2 C, C,2 C, | C,2 C, C,2 C, | %18
 C2 G, !fermata![C,_A,]2 A, | _A,2 A, A,2 A, | G,2 G, G,3 || C,2 C, C,2 C, | F,2 F, F,2 F, | %23
 G,2 G, G,2 G, | C,2 G, C3 | C,2 C, C,2 C, | F,2 F, F,2 F, | G,2 G, G,2 G, | C,2 C, C,3 |] %29

